localPackages/DesignSystem/Sources/DesignSystem/Resources/Assets.xcassets/IconSet/ic-bell.imageset/ic-bell.svg

<svg width="24" height="24" viewBox="0 0 24 24" fill="none" xmlns="http://www.w3.org/2000/svg">
<g id="ic-bell">
<path id="Icon" fill-rule="evenodd" clip-rule="evenodd" d="M19.7718 16.0208L21.7442 17.9939L21.7537 18.0033L21.796 18.0457C22.252 18.5019 22.48 18.73 22.4954 18.9258C22.5088 19.0957 22.44 19.2617 22.3104 19.3724C22.161 19.5 21.8385 19.5 21.1934 19.5H21.1336H21.1202H2.88611H2.86849H2.78529C2.14932 19.5 1.83134 19.5 1.68406 19.3742C1.55628 19.2651 1.48845 19.1014 1.50162 18.9339C1.51679 18.7408 1.7416 18.5159 2.19121 18.0661L2.25003 18.0073L2.2625 17.9948L4.23586 16.0208C4.40917 15.8474 4.50652 15.6123 4.50652 15.3672V8.99732C4.50652 4.85666 7.86318 1.5 12.0038 1.5C16.1445 1.5 19.5012 4.85666 19.5012 8.99732V15.3672C19.5012 15.6123 19.5985 15.8474 19.7718 16.0208ZM18.711 17.0812L19.6294 18H4.37827L5.29671 17.0812C5.7512 16.6266 6.00652 16.01 6.00652 15.3672V8.99732C6.00652 5.68509 8.69161 3 12.0038 3C15.3161 3 18.0012 5.68509 18.0012 8.99732V15.3672C18.0012 16.01 18.2565 16.6266 18.711 17.0812ZM12.0044 22.5C11.1759 22.5 10.5044 21.8284 10.5044 21H13.5044C13.5044 21.8284 12.8328 22.5 12.0044 22.5Z" fill="#0F0F0F"/>
</g>
</svg>

<svg xmlns="http://www.w3.org/2000/svg" width="24" height="24" viewBox="0 0 24 24">
  <g class="ic-bell">
    <path fill-rule="evenodd" d="m19.772 16.02 1.972 1.974.01.01.042.042c.456.456.684.684.7.88a.532.532 0 0 1-.186.446c-.149.128-.471.128-1.117.128H2.785c-.636 0-.954 0-1.1-.126a.525.525 0 0 1-.183-.44c.015-.193.24-.418.69-.868l.058-.059.013-.012 1.973-1.974a.925.925 0 0 0 .27-.654v-6.37a7.497 7.497 0 1 1 14.995 0v6.37c0 .245.098.48.27.654Zm-1.061 1.061.918.919H4.38l.918-.919c.454-.454.71-1.071.71-1.714v-6.37a5.997 5.997 0 1 1 11.994 0v6.37c0 .643.255 1.26.71 1.714ZM12.004 22.5a1.5 1.5 0 0 1-1.5-1.5h3a1.5 1.5 0 0 1-1.5 1.5Z" class="Icon"/>
  </g>
</svg>
